packages/icons/src/components/Icon/assets/default-solid/shield.svg

<svg width="20" height="20" viewBox="0 0 20 20" fill="none" xmlns="http://www.w3.org/2000/svg">
<path fill-rule="evenodd" clip-rule="evenodd" d="M9.66109 2.03588C9.85709 1.87313 10.1429 1.87313 10.3389 2.03588C12.2777 3.64574 14.7315 4.65679 17.4166 4.78533C17.658 4.79688 17.8641 4.9712 17.8957 5.21075C17.9645 5.7306 18 6.26096 18 6.7996C18 11.962 14.7401 16.3631 10.1665 18.0565C10.0593 18.0962 9.94102 18.0962 9.83378 18.0565C5.26004 16.3632 2 11.962 2 6.79948C2 6.26088 2.03548 5.73057 2.10424 5.21075C2.13593 4.97121 2.34202 4.79688 2.58337 4.78533C5.2685 4.6568 7.72231 3.64574 9.66109 2.03588Z" />
</svg>

<svg xmlns="http://www.w3.org/2000/svg" width="20" height="20" fill="none" viewBox="0 0 20 20">
    <path d="M9.661 2.036a.53.53 0 0 1 .678 0 11.95 11.95 0 0 0 7.078 2.75.5.5 0 0 1 .479.425Q18 5.99 18 6.8c0 5.162-3.26 9.563-7.834 11.256a.48.48 0 0 1-.332 0C5.26 16.363 2 11.962 2 6.8q0-.807.104-1.588a.5.5 0 0 1 .48-.426 11.95 11.95 0 0 0 7.077-2.75" clip-rule="evenodd"/>
</svg>
